src/assets/lut/neutralLUT.CUBE
#Created by: Adobe Photoshop Export Color Lookup Plugin
TITLE "NeutralLUT-恢复的.png"
#LUT size
LUT_3D_SIZE 5
#data domain
#LUT data points
DOMAIN_MIN 0.000000 0.000000 0.000000
DOMAIN_MAX 0.903226 0.903226 0.903226
0.000000 0.000000 0.000000
0.059448 0.059448 0.059448
0.277405 0.277405 0.277405
0.399902 0.399902 0.399902
0.399902 0.399902 0.399902
0.059448 0.059448 0.059448
0.089172 0.089172 0.089172
0.307129 0.307129 0.307129
0.429626 0.429626 0.429626
0.429626 0.429626 0.429626
0.277405 0.277405 0.277405
0.307129 0.307129 0.307129
0.416107 0.416107 0.416107
0.538605 0.538605 0.538605
0.538605 0.538605 0.538605
0.399902 0.399902 0.399902
0.429626 0.429626 0.429626
0.538605 0.538605 0.538605
0.599854 0.599854 0.599854
0.599854 0.599854 0.599854
0.399902 0.399902 0.399902
0.429626 0.429626 0.429626
0.538605 0.538605 0.538605
0.599854 0.599854 0.599854
0.599854 0.599854 0.599854
0.029724 0.029724 0.029724
0.118896 0.118896 0.118896
0.336853 0.336853 0.336853
0.459351 0.459351 0.459351
0.459351 0.459351 0.459351
0.089172 0.089172 0.089172
0.148651 0.148651 0.148651
0.366608 0.366608 0.366608
0.489105 0.489105 0.489105
0.489105 0.489105 0.489105
0.307129 0.307129 0.307129
0.366608 0.366608 0.366608
0.475586 0.475586 0.475586
0.598083 0.598083 0.598083
0.598083 0.598083 0.598083
0.429626 0.429626 0.429626
0.489105 0.489105 0.489105
0.598083 0.598083 0.598083
0.659332 0.659332 0.659332
0.659332 0.659332 0.659332
0.429626 0.429626 0.429626
0.489105 0.489105 0.489105
0.598083 0.598083 0.598083
0.659332 0.659332 0.659332
0.659332 0.659332 0.659332
0.138702 0.138702 0.138702
0.227875 0.227875 0.227875
0.554810 0.554810 0.554810
0.677307 0.677307 0.677307
0.677307 0.677307 0.677307
0.198151 0.198151 0.198151
0.257629 0.257629 0.257629
0.584564 0.584564 0.584564
0.707062 0.707062 0.707062
0.707062 0.707062 0.707062
0.416107 0.416107 0.416107
0.475586 0.475586 0.475586
0.693665 0.693665 0.693665
0.816162 0.816162 0.816162
0.816162 0.816162 0.816162
0.538605 0.538605 0.538605
0.598083 0.598083 0.598083
0.816162 0.816162 0.816162
0.877411 0.877411 0.877411
0.877411 0.877411 0.877411
0.538605 0.538605 0.538605
0.598083 0.598083 0.598083
0.816162 0.816162 0.816162
0.877411 0.877411 0.877411
0.877411 0.877411 0.877411
0.199951 0.199951 0.199951
0.289124 0.289124 0.289124
0.616058 0.616058 0.616058
0.799805 0.799805 0.799805
0.799805 0.799805 0.799805
0.259399 0.259399 0.259399
0.318878 0.318878 0.318878
0.645813 0.645813 0.645813
0.829559 0.829559 0.829559
0.829559 0.829559 0.829559
0.477356 0.477356 0.477356
0.536835 0.536835 0.536835
0.754913 0.754913 0.754913
0.938660 0.938660 0.938660
0.938660 0.938660 0.938660
0.599854 0.599854 0.599854
0.659332 0.659332 0.659332
0.877411 0.877411 0.877411
1.000000 1.000000 1.000000
1.000000 1.000000 1.000000
0.599854 0.599854 0.599854
0.659332 0.659332 0.659332
0.877411 0.877411 0.877411
1.000000 1.000000 1.000000
1.000000 1.000000 1.000000
0.199951 0.199951 0.199951
0.289124 0.289124 0.289124
0.616058 0.616058 0.616058
0.799805 0.799805 0.799805
0.799805 0.799805 0.799805
0.259399 0.259399 0.259399
0.318878 0.318878 0.318878
0.645813 0.645813 0.645813
0.829559 0.829559 0.829559
0.829559 0.829559 0.829559
0.477356 0.477356 0.477356
0.536835 0.536835 0.536835
0.754913 0.754913 0.754913
0.938660 0.938660 0.938660
0.938660 0.938660 0.938660
0.599854 0.599854 0.599854
0.659332 0.659332 0.659332
0.877411 0.877411 0.877411
1.000000 1.000000 1.000000
1.000000 1.000000 1.000000
0.599854 0.599854 0.599854
0.659332 0.659332 0.659332
0.877411 0.877411 0.877411
1.000000 1.000000 1.000000
1.000000 1.000000 1.000000
