src/assets/lut/neutralLUT.CUBE
#Created by: Adobe Photoshop Export Color Lookup Plugin
TITLE "NeutralLUT-恢复的.png"
#LUT size
LUT_3D_SIZE 32
#data domain
DOMAIN_MIN 0.0 0.0 0.0
DOMAIN_MAX 1.0 1.0 1.0
#LUT data points
0.000000 0.000000 0.000000
0.000031 0.000031 0.000031
0.001221 0.001221 0.001221
0.008972 0.008972 0.008972
0.017120 0.017120 0.017120
0.028137 0.028137 0.028137
0.042206 0.042206 0.042206
0.059448 0.059448 0.059448
0.079987 0.079987 0.079987
0.103912 0.103912 0.103912
0.131317 0.131317 0.131317
0.162323 0.162323 0.162323
0.196930 0.196930 0.196930
0.235260 0.235260 0.235260
0.277405 0.277405 0.277405
0.323364 0.323364 0.323364
0.373260 0.373260 0.373260
0.399902 0.399902 0.399902
0.399902 0.399902 0.399902
0.399902 0.399902 0.399902
0.399902 0.399902 0.399902
0.399902 0.399902 0.399902
0.399902 0.399902 0.399902
0.399902 0.399902 0.399902
0.399902 0.399902 0.399902
0.399902 0.399902 0.399902
0.399902 0.399902 0.399902
0.399902 0.399902 0.399902
0.399902 0.399902 0.399902
0.399902 0.399902 0.399902
0.399902 0.399902 0.399902
0.399902 0.399902 0.399902
0.000031 0.000031 0.000031
0.000061 0.000061 0.000061
0.001251 0.001251 0.001251
0.009003 0.009003 0.009003
0.017151 0.017151 0.017151
0.028168 0.028168 0.028168
0.042206 0.042206 0.042206
0.059479 0.059479 0.059479
0.080017 0.080017 0.080017
0.103943 0.103943 0.103943
0.131348 0.131348 0.131348
0.162323 0.162323 0.162323
0.196960 0.196960 0.196960
0.235291 0.235291 0.235291
0.277405 0.277405 0.277405
0.323364 0.323364 0.323364
0.373291 0.373291 0.373291
0.399933 0.399933 0.399933
0.399933 0.399933 0.399933
0.399933 0.399933 0.399933
0.399933 0.399933 0.399933
0.399933 0.399933 0.399933
0.399933 0.399933 0.399933
0.399933 0.399933 0.399933
0.399933 0.399933 0.399933
0.399933 0.399933 0.399933
0.399933 0.399933 0.399933
0.399933 0.399933 0.399933
0.399933 0.399933 0.399933
0.399933 0.399933 0.399933
0.399933 0.399933 0.399933
0.399933 0.399933 0.399933
0.001221 0.001221 0.001221
0.001251 0.001251 0.001251
0.001862 0.001862 0.001862
0.009583 0.009583 0.009583
0.017761 0.017761 0.017761
0.028748 0.028748 0.028748
0.042816 0.042816 0.042816
0.060059 0.060059 0.060059
0.080597 0.080597 0.080597
0.104523 0.104523 0.104523
0.131958 0.131958 0.131958
0.162933 0.162933 0.162933
0.197540 0.197540 0.197540
0.235901 0.235901 0.235901
0.278015 0.278015 0.278015
0.323975 0.323975 0.323975
0.373901 0.373901 0.373901
0.400513 0.400513 0.400513
0.400513 0.400513 0.400513
0.400513 0.400513 0.400513
0.400513 0.400513 0.400513
0.400513 0.400513 0.400513
0.400513 0.400513 0.400513
0.400513 0.400513 0.400513
0.400513 0.400513 0.400513
0.400513 0.400513 0.400513
0.400513 0.400513 0.400513
0.400513 0.400513 0.400513
0.400513 0.400513 0.400513
0.400513 0.400513 0.400513
0.400513 0.400513 0.400513
0.400513 0.400513 0.400513
0.008972 0.008972 0.008972
0.009003 0.009003 0.009003
0.009583 0.009583 0.009583
0.013458 0.013458 0.013458
0.021606 0.021606 0.021606
0.032623 0.032623 0.032623
0.046692 0.046692 0.046692
0.063934 0.063934 0.063934
0.084473 0.084473 0.084473
0.108398 0.108398 0.108398
0.135803 0.135803 0.135803
0.166809 0.166809 0.166809
0.201416 0.201416 0.201416
0.239746 0.239746 0.239746
0.281891 0.281891 0.281891
0.327850 0.327850 0.327850
0.377747 0.377747 0.377747
0.404388 0.404388 0.404388
0.404388 0.404388 0.404388
0.404388 0.404388 0.404388
0.404388 0.404388 0.404388
0.404388 0.404388 0.404388
0.404388 0.404388 0.404388
0.404388 0.404388 0.404388
0.404388 0.404388 0.404388
0.404388 0.404388 0.404388
0.404388 0.404388 0.404388
0.404388 0.404388 0.404388
0.404388 0.404388 0.404388
0.404388 0.404388 0.404388
0.404388 0.404388 0.404388
0.404388 0.404388 0.404388
0.017120 0.017120 0.017120
0.017151 0.017151 0.017151
0.017761 0.017761 0.017761
0.021606 0.021606 0.021606
0.025696 0.025696 0.025696
0.036713 0.036713 0.036713
0.050781 0.050781 0.050781
0.068024 0.068024 0.068024
0.088562 0.088562 0.088562
0.112488 0.112488 0.112488
0.139893 0.139893 0.139893
0.170868 0.170868 0.170868
0.205505 0.205505 0.205505
0.243835 0.243835 0.243835
0.285980 0.285980 0.285980
0.331940 0.331940 0.331940
0.381836 0.381836 0.381836
0.408478 0.408478 0.408478
0.408478 0.408478 0.408478
0.408478 0.408478 0.408478
0.408478 0.408478 0.408478
0.408478 0.408478 0.408478
0.408478 0.408478 0.408478
0.408478 0.408478 0.408478
0.408478 0.408478 0.408478
0.408478 0.408478 0.408478
0.408478 0.408478 0.408478
0.408478 0.408478 0.408478
0.408478 0.408478 0.408478
0.408478 0.408478 0.408478
0.408478 0.408478 0.408478
0.408478 0.408478 0.408478
0.028137 0.028137 0.028137
0.028168 0.028168 0.028168
0.028748 0.028748 0.028748
0.032623 0.032623 0.032623
0.036713 0.036713 0.036713
0.042206 0.042206 0.042206
0.056274 0.056274 0.056274
0.073517 0.073517 0.073517
0.094055 0.094055 0.094055
0.117981 0.117981 0.117981
0.145386 0.145386 0.145386
0.176392 0.176392 0.176392
0.210999 0.210999 0.210999
0.249329 0.249329 0.249329
0.291473 0.291473 0.291473
0.337433 0.337433 0.337433
0.387360 0.387360 0.387360
0.413971 0.413971 0.413971
0.413971 0.413971 0.413971
0.413971 0.413971 0.413971
0.413971 0.413971 0.413971
0.413971 0.413971 0.413971
0.413971 0.413971 0.413971
0.413971 0.413971 0.413971
0.413971 0.413971 0.413971
0.413971 0.413971 0.413971
0.413971 0.413971 0.413971
0.413971 0.413971 0.413971
0.413971 0.413971 0.413971
0.413971 0.413971 0.413971
0.413971 0.413971 0.413971
0.413971 0.413971 0.413971
0.042206 0.042206 0.042206
0.042206 0.042206 0.042206
0.042816 0.042816 0.042816
0.046692 0.046692 0.046692
0.050781 0.050781 0.050781
0.056274 0.056274 0.056274
0.063293 0.063293 0.063293
0.080536 0.080536 0.080536
0.101074 0.101074 0.101074
0.125031 0.125031 0.125031
0.152435 0.152435 0.152435
0.183411 0.183411 0.183411
0.218048 0.218048 0.218048
0.256378 0.256378 0.256378
0.298492 0.298492 0.298492
0.344452 0.344452 0.344452
0.394379 0.394379 0.394379
0.420990 0.420990 0.420990
0.420990 0.420990 0.420990
0.420990 0.420990 0.420990
0.420990 0.420990 0.420990
0.420990 0.420990 0.420990
0.420990 0.420990 0.420990
0.420990 0.420990 0.420990
0.420990 0.420990 0.420990
0.420990 0.420990 0.420990
0.420990 0.420990 0.420990
0.420990 0.420990 0.420990
0.420990 0.420990 0.420990
0.420990 0.420990 0.420990
0.420990 0.420990 0.420990
0.420990 0.420990 0.420990
0.059448 0.059448 0.059448
0.059479 0.059479 0.059479
0.060059 0.060059 0.060059
0.063934 0.063934 0.063934
0.068024 0.068024 0.068024
0.073517 0.073517 0.073517
0.080536 0.080536 0.080536
0.089172 0.089172 0.089172
0.109711 0.109711 0.109711
0.133636 0.133636 0.133636
0.161041 0.161041 0.161041
0.192047 0.192047 0.192047
0.226654 0.226654 0.226654
0.264984 0.264984 0.264984
0.307129 0.307129 0.307129
0.353088 0.353088 0.353088
0.402985 0.402985 0.402985
0.429626 0.429626 0.429626
0.429626 0.429626 0.429626
0.429626 0.429626 0.429626
0.429626 0.429626 0.429626
0.429626 0.429626 0.429626
0.429626 0.429626 0.429626
0.429626 0.429626 0.429626
0.429626 0.429626 0.429626
0.429626 0.429626 0.429626
0.429626 0.429626 0.429626
0.429626 0.429626 0.429626
0.429626 0.429626 0.429626
0.429626 0.429626 0.429626
0.429626 0.429626 0.429626
0.429626 0.429626 0.429626
0.079987 0.079987 0.079987
0.080017 0.080017 0.080017
0.080597 0.080597 0.080597
0.084473 0.084473 0.084473
0.088562 0.088562 0.088562
0.094055 0.094055 0.094055
0.101074 0.101074 0.101074
0.109711 0.109711 0.109711
0.119965 0.119965 0.119965
0.143921 0.143921 0.143921
0.171326 0.171326 0.171326
0.202301 0.202301 0.202301
0.236938 0.236938 0.236938
0.275269 0.275269 0.275269
0.317383 0.317383 0.317383
0.363342 0.363342 0.363342
0.413269 0.413269 0.413269
0.439880 0.439880 0.439880
0.439880 0.439880 0.439880
0.439880 0.439880 0.439880
0.439880 0.439880 0.439880
0.439880 0.439880 0.439880
0.439880 0.439880 0.439880
0.439880 0.439880 0.439880
0.439880 0.439880 0.439880
0.439880 0.439880 0.439880
0.439880 0.439880 0.439880
0.439880 0.439880 0.439880
0.439880 0.439880 0.439880
0.439880 0.439880 0.439880
0.439880 0.439880 0.439880
0.439880 0.439880 0.439880
0.103912 0.103912 0.103912
0.103943 0.103943 0.103943
0.104523 0.104523 0.104523
0.108398 0.108398 0.108398
0.112488 0.112488 0.112488
0.117981 0.117981 0.117981
0.125031 0.125031 0.125031
0.133636 0.133636 0.133636
0.143921 0.143921 0.143921
0.155884 0.155884 0.155884
0.183289 0.183289 0.183289
0.214264 0.214264 0.214264
0.248901 0.248901 0.248901
0.287231 0.287231 0.287231
0.329346 0.329346 0.329346
0.375305 0.375305 0.375305
0.425232 0.425232 0.425232
0.451874 0.451874 0.451874
0.451874 0.451874 0.451874
0.451874 0.451874 0.451874
0.451874 0.451874 0.451874
0.451874 0.451874 0.451874
0.451874 0.451874 0.451874
0.451874 0.451874 0.451874
0.451874 0.451874 0.451874
0.451874 0.451874 0.451874
0.451874 0.451874 0.451874
0.451874 0.451874 0.451874
0.451874 0.451874 0.451874
0.451874 0.451874 0.451874
0.451874 0.451874 0.451874
0.451874 0.451874 0.451874
0.131317 0.131317 0.131317
0.131348 0.131348 0.131348
0.131958 0.131958 0.131958
0.135803 0.135803 0.135803
0.139893 0.139893 0.139893
0.145386 0.145386 0.145386
0.152435 0.152435 0.152435
0.161041 0.161041 0.161041
0.171326 0.171326 0.171326
0.183289 0.183289 0.183289
0.196991 0.196991 0.196991
0.227966 0.227966 0.227966
0.262604 0.262604 0.262604
0.300934 0.300934 0.300934
0.343048 0.343048 0.343048
0.389008 0.389008 0.389008
0.438934 0.438934 0.438934
0.465576 0.465576 0.465576
0.465576 0.465576 0.465576
0.465576 0.465576 0.465576
0.465576 0.465576 0.465576
0.465576 0.465576 0.465576
0.465576 0.465576 0.465576
0.465576 0.465576 0.465576
0.465576 0.465576 0.465576
0.465576 0.465576 0.465576
0.465576 0.465576 0.465576
0.465576 0.465576 0.465576
0.465576 0.465576 0.465576
0.465576 0.465576 0.465576
0.465576 0.465576 0.465576
0.465576 0.465576 0.465576
0.162323 0.162323 0.162323
0.162323 0.162323 0.162323
0.162933 0.162933 0.162933
0.166809 0.166809 0.166809
0.170868 0.170868 0.170868
0.176392 0.176392 0.176392
0.183411 0.183411 0.183411
0.192047 0.192047 0.192047
0.202301 0.202301 0.202301
0.214264 0.214264 0.214264
0.227966 0.227966 0.227966
0.243469 0.243469 0.243469
0.278107 0.278107 0.278107
0.316437 0.316437 0.316437
0.358551 0.358551 0.358551
0.404510 0.404510 0.404510
0.454437 0.454437 0.454437
0.481049 0.481049 0.481049
0.481049 0.481049 0.481049
0.481049 0.481049 0.481049
0.481049 0.481049 0.481049
0.481049 0.481049 0.481049
0.481049 0.481049 0.481049
0.481049 0.481049 0.481049
0.481049 0.481049 0.481049
0.481049 0.481049 0.481049
0.481049 0.481049 0.481049
0.481049 0.481049 0.481049
0.481049 0.481049 0.481049
0.481049 0.481049 0.481049
0.481049 0.481049 0.481049
0.481049 0.481049 0.481049
0.196930 0.196930 0.196930
0.196960 0.196960 0.196960
0.197540 0.197540 0.197540
0.201416 0.201416 0.201416
0.205505 0.205505 0.205505
0.210999 0.210999 0.210999
0.218048 0.218048 0.218048
0.226654 0.226654 0.226654
0.236938 0.236938 0.236938
0.248901 0.248901 0.248901
0.262604 0.262604 0.262604
0.278107 0.278107 0.278107
0.295410 0.295410 0.295410
0.333740 0.333740 0.333740
0.375854 0.375854 0.375854
0.421814 0.421814 0.421814
0.471741 0.471741 0.471741
0.498383 0.498383 0.498383
0.498383 0.498383 0.498383
0.498383 0.498383 0.498383
0.498383 0.498383 0.498383
0.498383 0.498383 0.498383
0.498383 0.498383 0.498383
0.498383 0.498383 0.498383
0.498383 0.498383 0.498383
0.498383 0.498383 0.498383
0.498383 0.498383 0.498383
0.498383 0.498383 0.498383
0.498383 0.498383 0.498383
0.498383 0.498383 0.498383
0.498383 0.498383 0.498383
0.498383 0.498383 0.498383
0.235260 0.235260 0.235260
0.235291 0.235291 0.235291
0.235901 0.235901 0.235901
0.239746 0.239746 0.239746
0.243835 0.243835 0.243835
0.249329 0.249329 0.249329
0.256378 0.256378 0.256378
0.264984 0.264984 0.264984
0.275269 0.275269 0.275269
0.287231 0.287231 0.287231
0.300934 0.300934 0.300934
0.316437 0.316437 0.316437
0.333740 0.333740 0.333740
0.352905 0.352905 0.352905
0.395020 0.395020 0.395020
0.440979 0.440979 0.440979
0.490906 0.490906 0.490906
0.517548 0.517548 0.517548
0.517548 0.517548 0.517548
0.517548 0.517548 0.517548
0.517548 0.517548 0.517548
0.517548 0.517548 0.517548
0.517548 0.517548 0.517548
0.517548 0.517548 0.517548
0.517548 0.517548 0.517548
0.517548 0.517548 0.517548
0.517548 0.517548 0.517548
0.517548 0.517548 0.517548
0.517548 0.517548 0.517548
0.517548 0.517548 0.517548
0.517548 0.517548 0.517548
0.517548 0.517548 0.517548
0.277405 0.277405 0.277405
0.277405 0.277405 0.277405
0.278015 0.278015 0.278015
0.281891 0.281891 0.281891
0.285980 0.285980 0.285980
0.291473 0.291473 0.291473
0.298492 0.298492 0.298492
0.307129 0.307129 0.307129
0.317383 0.317383 0.317383
0.329346 0.329346 0.329346
0.343048 0.343048 0.343048
0.358551 0.358551 0.358551
0.375854 0.375854 0.375854
0.395020 0.395020 0.395020
0.416107 0.416107 0.416107
0.462067 0.462067 0.462067
0.511963 0.511963 0.511963
0.538605 0.538605 0.538605
0.538605 0.538605 0.538605
0.538605 0.538605 0.538605
0.538605 0.538605 0.538605
0.538605 0.538605 0.538605
0.538605 0.538605 0.538605
0.538605 0.538605 0.538605
0.538605 0.538605 0.538605
0.538605 0.538605 0.538605
0.538605 0.538605 0.538605
0.538605 0.538605 0.538605
0.538605 0.538605 0.538605
0.538605 0.538605 0.538605
0.538605 0.538605 0.538605
0.538605 0.538605 0.538605
0.323364 0.323364 0.323364
0.323364 0.323364 0.323364
0.323975 0.323975 0.323975
0.327850 0.327850 0.327850
0.331940 0.331940 0.331940
0.337433 0.337433 0.337433
0.344452 0.344452 0.344452
0.353088 0.353088 0.353088
0.363342 0.363342 0.363342
0.375305 0.375305 0.375305
0.389008 0.389008 0.389008
0.404510 0.404510 0.404510
0.421814 0.421814 0.421814
0.440979 0.440979 0.440979
0.462067 0.462067 0.462067
0.485046 0.485046 0.485046
0.534943 0.534943 0.534943
0.561584 0.561584 0.561584
0.561584 0.561584 0.561584
0.561584 0.561584 0.561584
0.561584 0.561584 0.561584
0.561584 0.561584 0.561584
0.561584 0.561584 0.561584
0.561584 0.561584 0.561584
0.561584 0.561584 0.561584
0.561584 0.561584 0.561584
0.561584 0.561584 0.561584
0.561584 0.561584 0.561584
0.561584 0.561584 0.561584
0.561584 0.561584 0.561584
0.561584 0.561584 0.561584
0.561584 0.561584 0.561584
0.373260 0.373260 0.373260
0.373291 0.373291 0.373291
0.373901 0.373901 0.373901
0.377747 0.377747 0.377747
0.381836 0.381836 0.381836
0.387360 0.387360 0.387360
0.394379 0.394379 0.394379
0.402985 0.402985 0.402985
0.413269 0.413269 0.413269
0.425232 0.425232 0.425232
0.438934 0.438934 0.438934
0.454437 0.454437 0.454437
0.471741 0.471741 0.471741
0.490906 0.490906 0.490906
0.511963 0.511963 0.511963
0.534943 0.534943 0.534943
0.559906 0.559906 0.559906
0.586548 0.586548 0.586548
0.586548 0.586548 0.586548
0.586548 0.586548 0.586548
0.586548 0.586548 0.586548
0.586548 0.586548 0.586548
0.586548 0.586548 0.586548
0.586548 0.586548 0.586548
0.586548 0.586548 0.586548
0.586548 0.586548 0.586548
0.586548 0.586548 0.586548
0.586548 0.586548 0.586548
0.586548 0.586548 0.586548
0.586548 0.586548 0.586548
0.586548 0.586548 0.586548
0.586548 0.586548 0.586548
0.399902 0.399902 0.399902
0.399933 0.399933 0.399933
0.400513 0.400513 0.400513
0.404388 0.404388 0.404388
0.408478 0.408478 0.408478
0.413971 0.413971 0.413971
0.420990 0.420990 0.420990
0.429626 0.429626 0.429626
0.439880 0.439880 0.439880
0.451874 0.451874 0.451874
0.465576 0.465576 0.465576
0.481049 0.481049 0.481049
0.498383 0.498383 0.498383
0.517548 0.517548 0.517548
0.538605 0.538605 0.538605
0.561584 0.561584 0.561584
0.586548 0.586548 0.586548
0.599854 0.599854 0.599854
0.599854 0.599854 0.599854
0.599854 0.599854 0.599854
0.599854 0.599854 0.599854
0.599854 0.599854 0.599854
0.599854 0.599854 0.599854
0.599854 0.599854 0.599854
0.599854 0.599854 0.599854
0.599854 0.599854 0.599854
0.599854 0.599854 0.599854
0.599854 0.599854 0.599854
0.599854 0.599854 0.599854
0.599854 0.599854 0.599854
0.599854 0.599854 0.599854
0.599854 0.599854 0.599854
0.399902 0.399902 0.399902
0.399933 0.399933 0.399933
0.400513 0.400513 0.400513
0.404388 0.404388 0.404388
0.408478 0.408478 0.408478
0.413971 0.413971 0.413971
0.420990 0.420990 0.420990
0.429626 0.429626 0.429626
0.439880 0.439880 0.439880
0.451874 0.451874 0.451874
0.465576 0.465576 0.465576
0.481049 0.481049 0.481049
0.498383 0.498383 0.498383
0.517548 0.517548 0.517548
0.538605 0.538605 0.538605
0.561584 0.561584 0.561584
0.586548 0.586548 0.586548
0.599854 0.599854 0.599854
0.599854 0.599854 0.599854
0.599854 0.599854 0.599854
0.599854 0.599854 0.599854
0.599854 0.599854 0.599854
0.599854 0.599854 0.599854
0.599854 0.599854 0.599854
0.599854 0.599854 0.599854
0.599854 0.599854 0.599854
0.599854 0.599854 0.599854
0.599854 0.599854 0.599854
0.599854 0.599854 0.599854
0.599854 0.599854 0.599854
0.599854 0.599854 0.599854
0.599854 0.599854 0.599854
0.399902 0.399902 0.399902
0.399933 0.399933 0.399933
0.400513 0.400513 0.400513
0.404388 0.404388 0.404388
0.408478 0.408478 0.408478
0.413971 0.413971 0.413971
0.420990 0.420990 0.420990
0.429626 0.429626 0.429626
0.439880 0.439880 0.439880
0.451874 0.451874 0.451874
0.465576 0.465576 0.465576
0.481049 0.481049 0.481049
0.498383 0.498383 0.498383
0.517548 0.517548 0.517548
0.538605 0.538605 0.538605
0.561584 0.561584 0.561584
0.586548 0.586548 0.586548
0.599854 0.599854 0.599854
0.599854 0.599854 0.599854
0.599854 0.599854 0.599854
0.599854 0.599854 0.599854
0.599854 0.599854 0.599854
0.599854 0.599854 0.599854
0.599854 0.599854 0.599854
0.599854 0.599854 0.599854
0.599854 0.599854 0.599854
0.599854 0.599854 0.599854
0.599854 0.599854 0.599854
0.599854 0.599854 0.599854
0.599854 0.599854 0.599854
0.599854 0.599854 0.599854
0.599854 0.599854 0.599854
0.399902 0.399902 0.399902
0.399933 0.399933 0.399933
0.400513 0.400513 0.400513
0.404388 0.404388 0.404388
0.408478 0.408478 0.408478
0.413971 0.413971 0.413971
0.420990 0.420990 0.420990
0.429626 0.429626 0.429626
0.439880 0.439880 0.439880
0.451874 0.451874 0.451874
0.465576 0.465576 0.465576
0.481049 0.481049 0.481049
0.498383 0.498383 0.498383
0.517548 0.517548 0.517548
0.538605 0.538605 0.538605
0.561584 0.561584 0.561584
0.586548 0.586548 0.586548
0.599854 0.599854 0.599854
0.599854 0.599854 0.599854
0.599854 0.599854 0.599854
0.599854 0.599854 0.599854
0.599854 0.599854 0.599854
0.599854 0.599854 0.599854
0.599854 0.599854 0.599854
0.599854 0.599854 0.599854
0.599854 0.599854 0.599854
0.599854 0.599854 0.599854
0.599854 0.599854 0.599854
0.599854 0.599854 0.599854
0.599854 0.599854 0.599854
0.599854 0.599854 0.599854
0.599854 0.599854 0.599854
0.399902 0.399902 0.399902
0.399933 0.399933 0.399933
0.400513 0.400513 0.400513
0.404388 0.404388 0.404388
0.408478 0.408478 0.408478
0.413971 0.413971 0.413971
0.420990 0.420990 0.420990
0.429626 0.429626 0.429626
0.439880 0.439880 0.439880
0.451874 0.451874 0.451874
0.465576 0.465576 0.465576
0.481049 0.481049 0.481049
0.498383 0.498383 0.498383
0.517548 0.517548 0.517548
0.538605 0.538605 0.538605
0.561584 0.561584 0.561584
0.586548 0.586548 0.586548
0.599854 0.599854 0.599854
0.599854 0.599854 0.599854
0.599854 0.599854 0.599854
0.599854 0.599854 0.599854
0.599854 0.599854 0.599854
0.599854 0.599854 0.599854
0.599854 0.599854 0.599854
0.599854 0.599854 0.599854
0.599854 0.599854 0.599854
0.599854 0.599854 0.599854
0.599854 0.599854 0.599854
0.599854 0.599854 0.599854
0.599854 0.599854 0.599854
0.599854 0.599854 0.599854
0.599854 0.599854 0.599854
0.399902 0.399902 0.399902
0.399933 0.399933 0.399933
0.400513 0.400513 0.400513
0.404388 0.404388 0.404388
0.408478 0.408478 0.408478
0.413971 0.413971 0.413971
0.420990 0.420990 0.420990
0.429626 0.429626 0.429626
0.439880 0.439880 0.439880
0.451874 0.451874 0.451874
0.465576 0.465576 0.465576
0.481049 0.481049 0.481049
0.498383 0.498383 0.498383
0.517548 0.517548 0.517548
0.538605 0.538605 0.538605
0.561584 0.561584 0.561584
0.586548 0.586548 0.586548
0.599854 0.599854 0.599854
0.599854 0.599854 0.599854
0.599854 0.599854 0.599854
0.599854 0.599854 0.599854
0.599854 0.599854 0.599854
0.599854 0.599854 0.599854
0.599854 0.599854 0.599854
0.599854 0.599854 0.599854
0.599854 0.599854 0.599854
0.599854 0.599854 0.599854
0.599854 0.599854 0.599854
0.599854 0.599854 0.599854
0.599854 0.599854 0.599854
0.599854 0.599854 0.599854
0.599854 0.599854 0.599854
0.399902 0.399902 0.399902
0.399933 0.399933 0.399933
0.400513 0.400513 0.400513
0.404388 0.404388 0.404388
0.408478 0.408478 0.408478
0.413971 0.413971 0.413971
0.420990 0.420990 0.420990
0.429626 0.429626 0.429626
0.439880 0.439880 0.439880
0.451874 0.451874 0.451874
0.465576 0.465576 0.465576
0.481049 0.481049 0.481049
0.498383 0.498383 0.498383
0.517548 0.517548 0.517548
0.538605 0.538605 0.538605
0.561584 0.561584 0.561584
0.586548 0.586548 0.586548
0.599854 0.599854 0.599854
0.599854 0.599854 0.599854
0.599854 0.599854 0.599854
0.599854 0.599854 0.599854
0.599854 0.599854 0.599854
0.599854 0.599854 0.599854
0.599854 0.599854 0.599854
0.599854 0.599854 0.599854
0.599854 0.599854 0.599854
0.599854 0.599854 0.599854
0.599854 0.599854 0.599854
0.599854 0.599854 0.599854
0.599854 0.599854 0.599854
0.599854 0.599854 0.599854
0.599854 0.599854 0.599854
0.399902 0.399902 0.399902
0.399933 0.399933 0.399933
0.400513 0.400513 0.400513
0.404388 0.404388 0.404388
0.408478 0.408478 0.408478
0.413971 0.413971 0.413971
0.420990 0.420990 0.420990
0.429626 0.429626 0.429626
0.439880 0.439880 0.439880
0.451874 0.451874 0.451874
0.465576 0.465576 0.465576
0.481049 0.481049 0.481049
0.498383 0.498383 0.498383
0.517548 0.517548 0.517548
0.538605 0.538605 0.538605
0.561584 0.561584 0.561584
0.586548 0.586548 0.586548
0.599854 0.599854 0.599854
0.599854 0.599854 0.599854
0.599854 0.599854 0.599854
0.599854 0.599854 0.599854
0.599854 0.599854 0.599854
0.599854 0.599854 0.599854
0.599854 0.599854 0.599854
0.599854 0.599854 0.599854
0.599854 0.599854 0.599854
0.599854 0.599854 0.599854
0.599854 0.599854 0.599854
0.599854 0.599854 0.599854
0.599854 0.599854 0.599854
0.599854 0.599854 0.599854
0.599854 0.599854 0.599854
0.399902 0.399902 0.399902
0.399933 0.399933 0.399933
0.400513 0.400513 0.400513
0.404388 0.404388 0.404388
0.408478 0.408478 0.408478
0.413971 0.413971 0.413971
0.420990 0.420990 0.420990
0.429626 0.429626 0.429626
0.439880 0.439880 0.439880
0.451874 0.451874 0.451874
0.465576 0.465576 0.465576
0.481049 0.481049 0.481049
0.498383 0.498383 0.498383
0.517548 0.517548 0.517548
0.538605 0.538605 0.538605
0.561584 0.561584 0.561584
0.586548 0.586548 0.586548
0.599854 0.599854 0.599854
0.599854 0.599854 0.599854
0.599854 0.599854 0.599854
0.599854 0.599854 0.599854
0.599854 0.599854 0.599854
0.599854 0.599854 0.599854
0.599854 0.599854 0.599854
0.599854 0.599854 0.599854
0.599854 0.599854 0.599854
0.599854 0.599854 0.599854
0.599854 0.599854 0.599854
0.599854 0.599854 0.599854
0.599854 0.599854 0.599854
0.599854 0.599854 0.599854
0.599854 0.599854 0.599854
0.399902 0.399902 0.399902
0.399933 0.399933 0.399933
0.400513 0.400513 0.400513
0.404388 0.404388 0.404388
0.408478 0.408478 0.408478
0.413971 0.413971 0.413971
0.420990 0.420990 0.420990
0.429626 0.429626 0.429626
0.439880 0.439880 0.439880
0.451874 0.451874 0.451874
0.465576 0.465576 0.465576
0.481049 0.481049 0.481049
0.498383 0.498383 0.498383
0.517548 0.517548 0.517548
0.538605 0.538605 0.538605
0.561584 0.561584 0.561584
0.586548 0.586548 0.586548
0.599854 0.599854 0.599854
0.599854 0.599854 0.599854
0.599854 0.599854 0.599854
0.599854 0.599854 0.599854
0.599854 0.599854 0.599854
0.599854 0.599854 0.599854
0.599854 0.599854 0.599854
0.599854 0.599854 0.599854
0.599854 0.599854 0.599854
0.599854 0.599854 0.599854
0.599854 0.599854 0.599854
0.599854 0.599854 0.599854
0.599854 0.599854 0.599854
0.599854 0.599854 0.599854
0.599854 0.599854 0.599854
0.399902 0.399902 0.399902
0.399933 0.399933 0.399933
0.400513 0.400513 0.400513
0.404388 0.404388 0.404388
0.408478 0.408478 0.408478
0.413971 0.413971 0.413971
0.420990 0.420990 0.420990
0.429626 0.429626 0.429626
0.439880 0.439880 0.439880
0.451874 0.451874 0.451874
0.465576 0.465576 0.465576
0.481049 0.481049 0.481049
0.498383 0.498383 0.498383
0.517548 0.517548 0.517548
0.538605 0.538605 0.538605
0.561584 0.561584 0.561584
0.586548 0.586548 0.586548
0.599854 0.599854 0.599854
