src/assets/lut/neutralLUT.CUBE
#Created by: Adobe Photoshop Export Color Lookup Plugin
TITLE "NeutralLUT-恢复的.png"
#LUT size
LUT_3D_SIZE 8
#data domain
#LUT data points
DOMAIN_MIN 0.000000 0.000000 0.000000
DOMAIN_MAX 0.903226 0.903226 0.903226
0.000000 0.000000 0.000000
0.017120 0.017120 0.017120
0.079987 0.079987 0.079987
0.196930 0.196930 0.196930
0.373260 0.373260 0.373260
0.399902 0.399902 0.399902
0.399902 0.399902 0.399902
0.399902 0.399902 0.399902
0.017120 0.017120 0.017120
0.025696 0.025696 0.025696
0.088562 0.088562 0.088562
0.205505 0.205505 0.205505
0.381836 0.381836 0.381836
0.408478 0.408478 0.408478
0.408478 0.408478 0.408478
0.408478 0.408478 0.408478
0.079987 0.079987 0.079987
0.088562 0.088562 0.088562
0.119965 0.119965 0.119965
0.236938 0.236938 0.236938
0.413269 0.413269 0.413269
0.439880 0.439880 0.439880
0.439880 0.439880 0.439880
0.439880 0.439880 0.439880
0.196930 0.196930 0.196930
0.205505 0.205505 0.205505
0.236938 0.236938 0.236938
0.295410 0.295410 0.295410
0.471741 0.471741 0.471741
0.498383 0.498383 0.498383
0.498383 0.498383 0.498383
0.498383 0.498383 0.498383
0.373260 0.373260 0.373260
0.381836 0.381836 0.381836
0.413269 0.413269 0.413269
0.471741 0.471741 0.471741
0.559906 0.559906 0.559906
0.586548 0.586548 0.586548
0.586548 0.586548 0.586548
0.586548 0.586548 0.586548
0.399902 0.399902 0.399902
0.408478 0.408478 0.408478
0.439880 0.439880 0.439880
0.498383 0.498383 0.498383
0.586548 0.586548 0.586548
0.599854 0.599854 0.599854
0.599854 0.599854 0.599854
0.599854 0.599854 0.599854
0.399902 0.399902 0.399902
0.408478 0.408478 0.408478
0.439880 0.439880 0.439880
0.498383 0.498383 0.498383
0.586548 0.586548 0.586548
0.599854 0.599854 0.599854
0.599854 0.599854 0.599854
0.599854 0.599854 0.599854
0.399902 0.399902 0.399902
0.408478 0.408478 0.408478
0.439880 0.439880 0.439880
0.498383 0.498383 0.498383
0.586548 0.586548 0.586548
0.599854 0.599854 0.599854
0.599854 0.599854 0.599854
0.599854 0.599854 0.599854
0.008575 0.008575 0.008575
0.034271 0.034271 0.034271
0.097107 0.097107 0.097107
0.214081 0.214081 0.214081
0.390411 0.390411 0.390411
0.417023 0.417023 0.417023
0.417023 0.417023 0.417023
0.417023 0.417023 0.417023
0.025696 0.025696 0.025696
0.042847 0.042847 0.042847
0.105682 0.105682 0.105682
0.222656 0.222656 0.222656
0.398987 0.398987 0.398987
0.425629 0.425629 0.425629
0.425629 0.425629 0.425629
0.425629 0.425629 0.425629
0.088562 0.088562 0.088562
0.105682 0.105682 0.105682
0.137115 0.137115 0.137115
0.254089 0.254089 0.254089
0.430420 0.430420 0.430420
0.457031 0.457031 0.457031
0.457031 0.457031 0.457031
0.457031 0.457031 0.457031
0.205505 0.205505 0.205505
0.222656 0.222656 0.222656
0.254089 0.254089 0.254089
0.312561 0.312561 0.312561
0.488892 0.488892 0.488892
0.515503 0.515503 0.515503
0.515503 0.515503 0.515503
0.515503 0.515503 0.515503
0.381836 0.381836 0.381836
0.398987 0.398987 0.398987
0.430420 0.430420 0.430420
0.488892 0.488892 0.488892
0.577057 0.577057 0.577057
0.603699 0.603699 0.603699
0.603699 0.603699 0.603699
0.603699 0.603699 0.603699
0.408478 0.408478 0.408478
0.425629 0.425629 0.425629
0.457031 0.457031 0.457031
0.515503 0.515503 0.515503
0.603699 0.603699 0.603699
0.617004 0.617004 0.617004
0.617004 0.617004 0.617004
0.617004 0.617004 0.617004
0.408478 0.408478 0.408478
0.425629 0.425629 0.425629
0.457031 0.457031 0.457031
0.515503 0.515503 0.515503
0.603699 0.603699 0.603699
0.617004 0.617004 0.617004
0.617004 0.617004 0.617004
0.617004 0.617004 0.617004
0.408478 0.408478 0.408478
0.425629 0.425629 0.425629
0.457031 0.457031 0.457031
0.515503 0.515503 0.515503
0.603699 0.603699 0.603699
0.617004 0.617004 0.617004
0.617004 0.617004 0.617004
0.617004 0.617004 0.617004
0.039978 0.039978 0.039978
0.065704 0.065704 0.065704
0.159973 0.159973 0.159973
0.276917 0.276917 0.276917
0.453247 0.453247 0.453247
0.479889 0.479889 0.479889
0.479889 0.479889 0.479889
0.479889 0.479889 0.479889
0.057129 0.057129 0.057129
0.074280 0.074280 0.074280
0.168549 0.168549 0.168549
0.285492 0.285492 0.285492
0.461823 0.461823 0.461823
0.488464 0.488464 0.488464
0.488464 0.488464 0.488464
0.488464 0.488464 0.488464
0.119965 0.119965 0.119965
0.137115 0.137115 0.137115
0.200012 0.200012 0.200012
0.316956 0.316956 0.316956
0.493286 0.493286 0.493286
0.519928 0.519928 0.519928
0.519928 0.519928 0.519928
0.519928 0.519928 0.519928
0.236938 0.236938 0.236938
0.254089 0.254089 0.254089
0.316956 0.316956 0.316956
0.375427 0.375427 0.375427
0.551788 0.551788 0.551788
0.578400 0.578400 0.578400
0.578400 0.578400 0.578400
0.578400 0.578400 0.578400
0.413269 0.413269 0.413269
0.430420 0.430420 0.430420
0.493286 0.493286 0.493286
0.551788 0.551788 0.551788
0.639954 0.639954 0.639954
0.666565 0.666565 0.666565
0.666565 0.666565 0.666565
0.666565 0.666565 0.666565
0.439880 0.439880 0.439880
0.457031 0.457031 0.457031
0.519928 0.519928 0.519928
0.578400 0.578400 0.578400
0.666565 0.666565 0.666565
0.679901 0.679901 0.679901
0.679901 0.679901 0.679901
0.679901 0.679901 0.679901
0.439880 0.439880 0.439880
0.457031 0.457031 0.457031
0.519928 0.519928 0.519928
0.578400 0.578400 0.578400
0.666565 0.666565 0.666565
0.679901 0.679901 0.679901
0.679901 0.679901 0.679901
0.679901 0.679901 0.679901
0.439880 0.439880 0.439880
0.457031 0.457031 0.457031
0.519928 0.519928 0.519928
0.578400 0.578400 0.578400
0.666565 0.666565 0.666565
0.679901 0.679901 0.679901
0.679901 0.679901 0.679901
0.679901 0.679901 0.679901
0.098480 0.098480 0.098480
0.124176 0.124176 0.124176
0.218445 0.218445 0.218445
0.393860 0.393860 0.393860
0.570221 0.570221 0.570221
0.596832 0.596832 0.596832
0.596832 0.596832 0.596832
0.596832 0.596832 0.596832
0.115601 0.115601 0.115601
0.132751 0.132751 0.132751
0.227020 0.227020 0.227020
0.402466 0.402466 0.402466
0.578796 0.578796 0.578796
0.605408 0.605408 0.605408
0.605408 0.605408 0.605408
0.605408 0.605408 0.605408
0.178467 0.178467 0.178467
0.195587 0.195587 0.195587
0.258484 0.258484 0.258484
0.433929 0.433929 0.433929
0.610260 0.610260 0.610260
0.636871 0.636871 0.636871
0.636871 0.636871 0.636871
0.636871 0.636871 0.636871
0.295410 0.295410 0.295410
0.312561 0.312561 0.312561
0.375427 0.375427 0.375427
0.492462 0.492462 0.492462
0.668793 0.668793 0.668793
0.695435 0.695435 0.695435
0.695435 0.695435 0.695435
0.695435 0.695435 0.695435
0.471741 0.471741 0.471741
0.488892 0.488892 0.488892
0.551788 0.551788 0.551788
0.668793 0.668793 0.668793
0.756958 0.756958 0.756958
0.783600 0.783600 0.783600
0.783600 0.783600 0.783600
0.783600 0.783600 0.783600
0.498383 0.498383 0.498383
0.515503 0.515503 0.515503
0.578400 0.578400 0.578400
0.695435 0.695435 0.695435
0.783600 0.783600 0.783600
0.796906 0.796906 0.796906
0.796906 0.796906 0.796906
0.796906 0.796906 0.796906
0.498383 0.498383 0.498383
0.515503 0.515503 0.515503
0.578400 0.578400 0.578400
0.695435 0.695435 0.695435
0.783600 0.783600 0.783600
0.796906 0.796906 0.796906
0.796906 0.796906 0.796906
0.796906 0.796906 0.796906
0.498383 0.498383 0.498383
0.515503 0.515503 0.515503
0.578400 0.578400 0.578400
0.695435 0.695435 0.695435
0.783600 0.783600 0.783600
0.796906 0.796906 0.796906
0.796906 0.796906 0.796906
0.796906 0.796906 0.796906
0.186646 0.186646 0.186646
0.212341 0.212341 0.212341
0.306610 0.306610 0.306610
0.482056 0.482056 0.482056
0.746552 0.746552 0.746552
0.773163 0.773163 0.773163
0.773163 0.773163 0.773163
0.773163 0.773163 0.773163
0.203766 0.203766 0.203766
0.220917 0.220917 0.220917
0.315186 0.315186 0.315186
0.490631 0.490631 0.490631
0.755127 0.755127 0.755127
0.781738 0.781738 0.781738
0.781738 0.781738 0.781738
0.781738 0.781738 0.781738
0.266632 0.266632 0.266632
0.283752 0.283752 0.283752
0.346649 0.346649 0.346649
0.522095 0.522095 0.522095
0.786591 0.786591 0.786591
0.813202 0.813202 0.813202
0.813202 0.813202 0.813202
0.813202 0.813202 0.813202
0.383575 0.383575 0.383575
0.400726 0.400726 0.400726
0.463593 0.463593 0.463593
0.580627 0.580627 0.580627
0.845123 0.845123 0.845123
0.871765 0.871765 0.871765
0.871765 0.871765 0.871765
0.871765 0.871765 0.871765
0.559906 0.559906 0.559906
0.577057 0.577057 0.577057
0.639954 0.639954 0.639954
0.756958 0.756958 0.756958
0.933411 0.933411 0.933411
0.960052 0.960052 0.960052
0.960052 0.960052 0.960052
0.960052 0.960052 0.960052
0.586548 0.586548 0.586548
0.603699 0.603699 0.603699
0.666565 0.666565 0.666565
0.783600 0.783600 0.783600
0.960052 0.960052 0.960052
0.973358 0.973358 0.973358
0.973358 0.973358 0.973358
0.973358 0.973358 0.973358
0.586548 0.586548 0.586548
0.603699 0.603699 0.603699
0.666565 0.666565 0.666565
0.783600 0.783600 0.783600
0.960052 0.960052 0.960052
0.973358 0.973358 0.973358
0.973358 0.973358 0.973358
0.973358 0.973358 0.973358
0.586548 0.586548 0.586548
0.603699 0.603699 0.603699
0.666565 0.666565 0.666565
0.783600 0.783600 0.783600
0.960052 0.960052 0.960052
0.973358 0.973358 0.973358
0.973358 0.973358 0.973358
0.973358 0.973358 0.973358
0.199951 0.199951 0.199951
0.225647 0.225647 0.225647
0.319916 0.319916 0.319916
0.495361 0.495361 0.495361
0.759857 0.759857 0.759857
0.799805 0.799805 0.799805
0.799805 0.799805 0.799805
0.799805 0.799805 0.799805
0.217072 0.217072 0.217072
0.234222 0.234222 0.234222
0.328522 0.328522 0.328522
0.503937 0.503937 0.503937
0.768433 0.768433 0.768433
0.808380 0.808380 0.808380
0.808380 0.808380 0.808380
0.808380 0.808380 0.808380
0.279938 0.279938 0.279938
0.297089 0.297089 0.297089
0.359985 0.359985 0.359985
0.535400 0.535400 0.535400
0.799896 0.799896 0.799896
0.839844 0.839844 0.839844
0.839844 0.839844 0.839844
0.839844 0.839844 0.839844
0.396881 0.396881 0.396881
0.414032 0.414032 0.414032
0.476929 0.476929 0.476929
0.593933 0.593933 0.593933
0.858459 0.858459 0.858459
0.898407 0.898407 0.898407
0.898407 0.898407 0.898407
0.898407 0.898407 0.898407
0.573212 0.573212 0.573212
0.590363 0.590363 0.590363
0.653259 0.653259 0.653259
0.770294 0.770294 0.770294
0.946716 0.946716 0.946716
0.986664 0.986664 0.986664
0.986664 0.986664 0.986664
0.986664 0.986664 0.986664
0.599854 0.599854 0.599854
0.617004 0.617004 0.617004
0.679901 0.679901 0.679901
0.796906 0.796906 0.796906
0.973358 0.973358 0.973358
1.000000 1.000000 1.000000
1.000000 1.000000 1.000000
1.000000 1.000000 1.000000
0.599854 0.599854 0.599854
0.617004 0.617004 0.617004
0.679901 0.679901 0.679901
0.796906 0.796906 0.796906
0.973358 0.973358 0.973358
1.000000 1.000000 1.000000
1.000000 1.000000 1.000000
1.000000 1.000000 1.000000
0.599854 0.599854 0.599854
0.617004 0.617004 0.617004
0.679901 0.679901 0.679901
0.796906 0.796906 0.796906
0.973358 0.973358 0.973358
1.000000 1.000000 1.000000
1.000000 1.000000 1.000000
1.000000 1.000000 1.000000
0.199951 0.199951 0.199951
0.225647 0.225647 0.225647
0.319916 0.319916 0.319916
0.495361 0.495361 0.495361
0.759857 0.759857 0.759857
0.799805 0.799805 0.799805
0.799805 0.799805 0.799805
0.799805 0.799805 0.799805
0.217072 0.217072 0.217072
0.234222 0.234222 0.234222
0.328522 0.328522 0.328522
0.503937 0.503937 0.503937
0.768433 0.768433 0.768433
0.808380 0.808380 0.808380
0.808380 0.808380 0.808380
0.808380 0.808380 0.808380
0.279938 0.279938 0.279938
0.297089 0.297089 0.297089
0.359985 0.359985 0.359985
0.535400 0.535400 0.535400
0.799896 0.799896 0.799896
0.839844 0.839844 0.839844
0.839844 0.839844 0.839844
0.839844 0.839844 0.839844
0.396881 0.396881 0.396881
0.414032 0.414032 0.414032
0.476929 0.476929 0.476929
0.593933 0.593933 0.593933
0.858459 0.858459 0.858459
0.898407 0.898407 0.898407
0.898407 0.898407 0.898407
0.898407 0.898407 0.898407
0.573212 0.573212 0.573212
0.590363 0.590363 0.590363
0.653259 0.653259 0.653259
0.770294 0.770294 0.770294
0.946716 0.946716 0.946716
0.986664 0.986664 0.986664
0.986664 0.986664 0.986664
0.986664 0.986664 0.986664
0.599854 0.599854 0.599854
0.617004 0.617004 0.617004
0.679901 0.679901 0.679901
0.796906 0.796906 0.796906
0.973358 0.973358 0.973358
1.000000 1.000000 1.000000
1.000000 1.000000 1.000000
1.000000 1.000000 1.000000
0.599854 0.599854 0.599854
0.617004 0.617004 0.617004
0.679901 0.679901 0.679901
0.796906 0.796906 0.796906
0.973358 0.973358 0.973358
1.000000 1.000000 1.000000
1.000000 1.000000 1.000000
1.000000 1.000000 1.000000
0.599854 0.599854 0.599854
0.617004 0.617004 0.617004
0.679901 0.679901 0.679901
0.796906 0.796906 0.796906
0.973358 0.973358 0.973358
1.000000 1.000000 1.000000
1.000000 1.000000 1.000000
1.000000 1.000000 1.000000
0.199951 0.199951 0.199951
0.225647 0.225647 0.225647
0.319916 0.319916 0.319916
0.495361 0.495361 0.495361
0.759857 0.759857 0.759857
0.799805 0.799805 0.799805
0.799805 0.799805 0.799805
0.799805 0.799805 0.799805
0.217072 0.217072 0.217072
0.234222 0.234222 0.234222
0.328522 0.328522 0.328522
0.503937 0.503937 0.503937
0.768433 0.768433 0.768433
0.808380 0.808380 0.808380
0.808380 0.808380 0.808380
0.808380 0.808380 0.808380
0.279938 0.279938 0.279938
0.297089 0.297089 0.297089
0.359985 0.359985 0.359985
0.535400 0.535400 0.535400
0.799896 0.799896 0.799896
0.839844 0.839844 0.839844
0.839844 0.839844 0.839844
0.839844 0.839844 0.839844
0.396881 0.396881 0.396881
0.414032 0.414032 0.414032
0.476929 0.476929 0.476929
0.593933 0.593933 0.593933
0.858459 0.858459 0.858459
0.898407 0.898407 0.898407
0.898407 0.898407 0.898407
0.898407 0.898407 0.898407
0.573212 0.573212 0.573212
0.590363 0.590363 0.590363
0.653259 0.653259 0.653259
0.770294 0.770294 0.770294
0.946716 0.946716 0.946716
0.986664 0.986664 0.986664
0.986664 0.986664 0.986664
0.986664 0.986664 0.986664
0.599854 0.599854 0.599854
0.617004 0.617004 0.617004
0.679901 0.679901 0.679901
0.796906 0.796906 0.796906
0.973358 0.973358 0.973358
1.000000 1.000000 1.000000
1.000000 1.000000 1.000000
1.000000 1.000000 1.000000
0.599854 0.599854 0.599854
0.617004 0.617004 0.617004
0.679901 0.679901 0.679901
0.796906 0.796906 0.796906
0.973358 0.973358 0.973358
1.000000 1.000000 1.000000
1.000000 1.000000 1.000000
1.000000 1.000000 1.000000
0.599854 0.599854 0.599854
0.617004 0.617004 0.617004
0.679901 0.679901 0.679901
0.796906 0.796906 0.796906
0.973358 0.973358 0.973358
1.000000 1.000000 1.000000
1.000000 1.000000 1.000000
1.000000 1.000000 1.000000
